X: 342
T: A Salute To Angus Chisholm
R: hornpipe
M: 4/4
K: Dmajor
a2|:(3aba (3gfe (3dAF (3DFA|GFED CEAG|FAdA Adfe|
(3efd (3cdB A2 a2|(3aba (3gfe (3dAF (3DFA|GFED CEAG|
FAdF (3ABG (3FGE|1 D2 F2 D2 a2:|2 D2 F2 D2 FD||
|:CEAc (3ecA (3GFE|Ddfd (3afd (3cdB|Adfa gfed|cbac d2 ga|
(3bge (3afd (3gec (3fdB|(3ecA (3GBG (3AFE (3DCB,|
(3A,DF (3AGB (3Ada (3bec|1 d2 f2 d2 FD:|2 d2 f2 d4||

